32x32/apps/eu.tiliado.Nuvola.svg

<svg xmlns="http://www.w3.org/2000/svg" width="32" height="32" version="1">
 <path fill="#f98e3c" d="m16 6c-3.883 0-7.1901 2.3053-8.6133 5.568-3.6147 0.521-6.3867 3.509-6.3867 7.159 0 4.017 3.3579 7.273 7.5 7.273h15.938c3.624 0 6.562-2.849 6.562-6.364 0-3.266-2.533-5.943-5.801-6.306-0.852-4.1703-4.649-7.33-9.199-7.33z"/>
 <path opacity=".2" d="m1.0254 19.195c-0.0132 0.176-0.0254 0.352-0.0254 0.532 0 4.016 3.3579 7.273 7.5 7.273h15.938c3.624 0 6.562-2.849 6.562-6.363 0-0.173-0.011-0.344-0.025-0.514-0.258 3.286-3.083 5.877-6.537 5.877h-15.938c-3.9791 0-7.2244-3.007-7.4746-6.805z"/>
 <path opacity=".2" d="m21 18-8 5v-10z"/>
 <path fill="#fff" d="m21 17-8 5v-10z"/>
 <path fill="#fff" opacity=".2" d="m16 6c-3.883 0-7.1901 2.3057-8.6133 5.568-3.6147 0.521-6.3867 3.509-6.3867 7.159 0 0.158 0.0151 0.313 0.0254 0.468 0.2546-3.404 2.9242-6.131 6.3613-6.627 1.4232-3.2623 4.7303-5.568 8.6133-5.568 4.55 0 8.3472 3.1598 9.1992 7.3301 3.0947 0.34375 5.5258 2.7639 5.7754 5.793 0.012-0.161 0.025-0.322 0.025-0.486 0-3.266-2.533-5.944-5.801-6.307-0.852-4.1702-4.649-7.33-9.199-7.33z"/>
</svg>

<svg xmlns="http://www.w3.org/2000/svg" width="32" height="32" version="1"><path fill="#f98e3c" d="M16 6c-3.883 0-7.19 2.305-8.613 5.568C3.772 12.089 1 15.077 1 18.727 1 22.744 4.358 26 8.5 26h15.938C28.062 26 31 23.151 31 19.636c0-3.266-2.533-5.943-5.801-6.306C24.347 9.16 20.55 6 16 6z"/><path opacity=".2" d="M1.025 19.195a7.072 7.072 0 0 0-.025.532C1 23.743 4.358 27 8.5 27h15.938C28.062 27 31 24.151 31 20.637a6.25 6.25 0 0 0-.025-.514C30.717 23.409 27.892 26 24.438 26H8.5c-3.98 0-7.224-3.007-7.475-6.805z"/><path opacity=".2" d="m21 18-8 5V13z"/><path fill="#fff" d="m21 17-8 5V12z"/><path fill="#fff" opacity=".2" d="M16 6c-3.883 0-7.19 2.306-8.613 5.568C3.772 12.089 1 15.077 1 18.727c0 .158.015.313.025.468.255-3.404 2.925-6.131 6.362-6.627C8.81 9.306 12.117 7 16 7c4.55 0 8.347 3.16 9.2 7.33 3.094.344 5.525 2.764 5.775 5.793.012-.16.025-.322.025-.486 0-3.266-2.533-5.944-5.801-6.307-.852-4.17-4.65-7.33-9.2-7.33z"/></svg>
